icons/svgs/tree-solid.svg

<svg width="24" height="24" viewBox="0 0 24 24" fill="none" xmlns="http://www.w3.org/2000/svg">
<path d="M11.4531 2.23438C11.6094 2.11719 11.7656 2 12 2C12.1953 2 12.3906 2.11719 12.5078 2.23438L18.3281 8.64062C18.4453 8.79688 18.5625 9.03125 18.5625 9.22656C18.5625 9.73438 18.1328 10.125 17.625 10.125H16.6875L19.5391 13.0156C19.6953 13.1719 19.8125 13.4062 19.8125 13.6406C19.8125 14.1094 19.3828 14.5 18.9141 14.5H17.625L20.5156 18.0156C20.6719 18.1719 20.75 18.3672 20.75 18.6016C20.75 19.1094 20.3203 19.5 19.8125 19.5H13.25V20.75C13.25 21.4531 12.6641 22 12 22C11.2969 22 10.75 21.4531 10.75 20.75V19.5H4.14844C3.64062 19.5 3.25 19.1094 3.25 18.6016C3.25 18.3672 3.28906 18.1719 3.44531 18.0156L6.375 14.5H5.04688C4.57812 14.5 4.1875 14.1094 4.1875 13.6406C4.1875 13.4062 4.26562 13.1719 4.42188 13.0156L7.3125 10.125H6.33594C5.82812 10.125 5.4375 9.73438 5.4375 9.22656C5.4375 9.03125 5.51562 8.79688 5.67188 8.64062L11.4531 2.23438Z" fill="black"/>
</svg>

<svg xmlns="http://www.w3.org/2000/svg" width="24" height="24" fill="currentColor" class="icon-tree-solid" viewBox="0 0 24 24">
  <mask id="a" width="18" height="20" x="3" y="2" maskUnits="userSpaceOnUse" style="mask-type:alpha">
    <path d="M11.453 2.234C11.61 2.117 11.766 2 12 2c.195 0 .39.117.508.234l5.82 6.407c.117.156.235.39.235.586 0 .507-.43.898-.938.898h-.937l2.851 2.89a.93.93 0 0 1 .273.626c0 .468-.43.859-.898.859h-1.289l2.89 3.516a.8.8 0 0 1 .235.586c0 .507-.43.898-.937.898H13.25v1.25c0 .703-.586 1.25-1.25 1.25-.703 0-1.25-.547-1.25-1.25V19.5H4.148a.884.884 0 0 1-.898-.898c0-.235.04-.43.195-.586l2.93-3.516H5.047a.867.867 0 0 1-.86-.86c0-.234.079-.468.235-.624l2.89-2.891h-.976a.884.884 0 0 1-.899-.898c0-.196.079-.43.235-.586z"/>
  </mask>
  <g mask="url(#a)">
    <path d="M0 0h24v24H0z"/>
  </g>
</svg>
